lib/brands/icons/google-photos.svg

<svg xmlns="http://www.w3.org/2000/svg" fill="none" aria-hidden="true" viewBox="0 0 48 48"><g id="google-photos-Icon"><g id="Group"><path id="Vector" fill="#FBBB05" d="M15.001 14.1771C19.969 14.1771 24.001 18.2091 24.001 23.1771V24H6.82383C6.37126 24 6.00098 23.6297 6.00098 23.1771C6.00098 18.2091 10.033 14.1771 15.001 14.1771Z"/><path id="Vector_2" fill="#E94335" d="M33.8238 15C33.8238 19.968 29.7918 24 24.8238 24H24.001V6.82286C24.001 6.37029 24.3713 6 24.8238 6C29.7918 6 33.8238 10.032 33.8238 15Z"/><path id="Vector_3" fill="#4285F4" d="M33.001 33.8229C28.033 33.8229 24.001 29.7909 24.001 24.8229V24H41.1781C41.6307 24 42.001 24.3703 42.001 24.8229C42.001 29.7909 37.969 33.8229 33.001 33.8229Z"/><path id="Vector_4" fill="#0F9D58" d="M14.1777 33C14.1777 28.032 18.2097 24 23.1777 24H24.0006V41.1771C24.0006 41.6297 23.6303 42 23.1777 42C18.2097 42 14.1777 37.968 14.1777 33Z"/></g></g></svg>

<svg xmlns="http://www.w3.org/2000/svg" fill="none" aria-hidden="true" viewBox="0 0 48 48"><path fill="#FBBB05" d="M15.001 14.177c4.968 0 9 4.032 9 9V24H6.824A.825.825 0 0 1 6 23.177c0-4.968 4.032-9 9-9Z"/><path fill="#E94335" d="M33.824 15c0 4.968-4.032 9-9 9H24V6.823c0-.453.37-.823.823-.823 4.968 0 9 4.032 9 9Z"/><path fill="#4285F4" d="M33.001 33.823c-4.968 0-9-4.032-9-9V24h17.177c.453 0 .823.37.823.823 0 4.968-4.032 9-9 9Z"/><path fill="#0F9D58" d="M14.178 33c0-4.968 4.032-9 9-9H24v17.177c0 .453-.37.823-.823.823-4.968 0-9-4.032-9-9Z"/></svg>
